X:7
%%staffsep 25pt
T:Im Haüsel am Rhein
O:France
A:Alsace
R:Valse
C:Trad. Weissenburg 1910
Z:Transcrit et/ou corrigé par Michel BELLON - 2006-05-29
Z:Pour toute observation mailto:galouvielle@free.fr
M:3/4
L:1/4
K:G
D | G>GG | BAG | A2D | D2D | A>AA | (cB)A | B2G |
G2B | c>cc | edc | B>BB | dcB/B/ | A2A | c2F |
(G2B | d2)B | c>cc | edc | B>BB | dcB/B/ | A2A | c2F | G3 |Gz |]
%%begintext
2 x

Valse des roses, 1/2 fois : sans reprise.
%%endtext


%%footer $D   Galouvielle-MBe 2007 \nScottish (France)
